X: 27947
T: Mountains Of Pomeroy, The
R: barndance
M: 4/4
K: Gmajor
Bc|d2 dB dcBA|G3 A E2 GE|D3E/G/ G2 AB|c2 B2 A2 Bc|
d2 dB dcBA|G3A E2 GE|D3E G3A|G2 G2 G2 GA||
B3 A G2 AB|c2 d2 d2 ge|d2 dB/A/ G2 AB|c2 c2 c2 Bc|
d2 dB dcBA|G2 A2 E2 GE|D3E G3A|G2 G2 G2 GA|
B2 A2 G2 AB|c2 d2 d2 ge|d3B/A/ G2 AB|c2 c2 c2 Bc|
d2 B2 dcBA|G2 A2 E2 GE|D3 E G2 G2|G2 G2 G2||

